www/assets/icons/assist_walker.svg

<svg width="24" height="24" viewBox="0 0 24 24" xmlns="http://www.w3.org/2000/svg" fill='currentColor'><path d="M13.175 7C14.2796 7 15.175 6.10457 15.175 5C15.175 3.89543 14.2796 3 13.175 3C12.0704 3 11.175 3.89543 11.175 5C11.175 6.10457 12.0704 7 13.175 7Z"/><path d="M20.445 18.22L19.805 11.85C19.735 11.08 19.085 10.5 18.315 10.5H16.675C15.175 10.48 13.815 9.96 12.915 9.06L10.915 7.08C10.755 6.92 10.295 6.5 9.50501 6.5C8.99501 6.5 8.48501 6.7 8.09501 7.09L4.75501 10.41C4.22501 11.09 4.24501 11.98 4.54501 12.54L5.97501 15.34L2.82501 19.39L4.39501 20.63L8.07501 15.9L7.90501 14.54L8.67501 15.25V20.5H10.675V14.38L8.55501 12.26L10.915 9.9C11.855 10.84 12.635 11.72 14.505 12.22L13.675 20.5H15.175L15.585 17H18.765L18.905 18.22C18.465 18.48 18.175 18.96 18.175 19.5C18.175 20.33 18.845 21 19.675 21C20.505 21 21.175 20.33 21.175 19.5C21.175 18.96 20.885 18.48 20.445 18.22ZM15.765 15.5L16.175 12H18.175L18.585 15.5H15.765Z"/></svg>

<svg xmlns="http://www.w3.org/2000/svg" width="24" height="24" viewBox="0 0 24 24" fill='currentColor'><path d="M13.175 7a2 2 0 1 0 0-4 2 2 0 0 0 0 4m7.27 11.22-.64-6.37a1.49 1.49 0 0 0-1.49-1.35h-1.64c-1.5-.02-2.86-.54-3.76-1.44l-2-1.98a1.95 1.95 0 0 0-1.41-.58c-.51 0-1.02.2-1.41.59l-3.34 3.32c-.53.68-.51 1.57-.21 2.13l1.43 2.8-3.15 4.05 1.57 1.24 3.68-4.73-.17-1.36.77.71v5.25h2v-6.12l-2.12-2.12 2.36-2.36c.94.94 1.72 1.82 3.59 2.32l-.83 8.28h1.5l.41-3.5h3.18l.14 1.22c-.44.26-.73.74-.73 1.28 0 .83.67 1.5 1.5 1.5s1.5-.67 1.5-1.5c0-.54-.29-1.02-.73-1.28m-4.68-2.72.41-3.5h2l.41 3.5z"/></svg>
